X:1
T:[ID 2-74]
T:[ID 2-74]
T:Bezeichnung standardisiert: Menuett Menuet
T:Urheber unbekannt Datum in der hier transkribierten schriftlichen Quelle: 1767
C:Urheber unbekannt
C:Datum in der hier transkribierten schriftlichen Quelle: 1767
L:1/8
M:3/4
K:D
V:1 treble 
V:1
 d2 d2 d2 | d2 f2 a2 | g2 e2 cA | d4 fa | g2 e2 cA | d2 f2 a2 | g2 bagf | e6 :: e2 e2 e2 | %9
 e2 c2 A2 | f2 f2 f2 | f2 d2 A2 | g2 ec d2 | g2 ec d2 | (3BAG F2 E2 | D6 :| %16

